X:397
T:Girl of the House, The
R:jig
H:See also The Girl from the Big House, #161
B:Roche 98
Z:id:hn-jig-397
M:6/8
K:D
|: F2D G2D | EAG FED | F2A GEE | FDD EDD |
F2D G2D | EAG ABc | dcA GEE | FDD EDD :|
|: ABA AGF | GAG GFG | ABA cAG | Add d2e |
fed cAG | FAG FED | dcA GEE | FDD EDD :|

